X:1
T:Chichen Itza, LMD refrain
T:Chichen Itza, LMD refrain
T:Emily Elizabeth Steele Elliott, 1891
T:Public Domain Courtesy of the Cyber Hymnal™
C:Emily Elizabeth Steele Elliott, 1891
Z:Public Domain
Z:Courtesy of the Cyber Hymnal™
%%score ( 1 2 ) ( 3 4 )
L:1/8
Q:1/4=108
M:4/4
K:C
V:1 treble 
V:2 treble 
V:3 bass 
V:4 bass 
V:1
 G2 | c2 c2 B2 E2 | A2 A2 G2 [CE]2 | [CE]2 [CE]2 [CF]2 [CE]2 | [CD]2 [B,D]2 C2 G2 | c2 cc B2 E2 | %6
 A2 A2 G2 EE | [CE][CE] [CE]2 [C^F]2 [B,G]2 | [DG]2 [C^F]2 [B,G]4 | [CE]2 [CE][CE] [CE]2 [CE][CE] | %10
 [DG]2 [DG]2 [CE]4 | [EG]2 [EG][EG] [EG]2 [EG]2 | [Ec]2 [Ec]2 [DB]3 G | [Ge]2 [Ge]2 [Gd]2 [FB]2 | %14
 [Ec]2 [D^G]2 ([DB]2 [CA]2) | [^CG]2 [^A,F]>[A,D] =C2 [B,D]>[CE] | D4 [G,C]4 | %17
 [CE]2 [CE]>[CE] [CE]2 [CE]>[CE] | [EG]4 [CE]4 | [EG]2 [EG]>[EG] [EG]2 [EG]>[EG] | [Ec]4 [EG]4 | %21
 [Ec]2 [Af]>[Af] [Ge]2 [Fd]>[Fd] | c4- [FA][FA] [EGc]2 [DF]2 | [Ec]2 [FB]>[FA] [CG]2 [CF][CE] | %24
 D4 [G,C]4 |] %25
V:2
 G2 | c2 c2 B2 E2 | A2 A2 G2 x2 | x8 | x4 C2 G2 | c2 cc B2 E2 | A2 A2 G2 EE | x8 | x8 | x8 | x8 | %11
 x8 | x7 G | x8 | x8 | x4 C2 x2 | (C2 B,2) x4 | x8 | x8 | x8 | x8 | x8 | E2 x8 | x8 | %24
 (C2 B,2) x4 |] %25
V:3
 G,2 | C2 C2 B,2 E,2 | A,2 A,2 G,2 C2 | [A,C]2 [G,B,]2 [F,A,]2 [C,G,]2 | G,2 [G,,F,]2 [C,E,]2 G,2 | %5
 C2 CC B,2 E,2 | A,2 A,2 G,2 E,E, | A,A, A,2 [D,A,]2 [E,G,]2 | [D,A,]2 [D,A,]2 [G,,G,]4 | %9
 [C,G,]2 [C,G,][C,G,] [C,G,]2 [C,C][C,C] | [G,C]2 [G,B,]2 [C,G,]4 | %11
 [C,C]2 [C,C][C,C] [C,C]2 [C,C]2 | C2 [E,G,][F,A,] [G,B,]3 G, | C2 C2 [B,D]2 [^G,D]2 | %14
 [A,C]2 [E,B,]2 (^G,2 A,2) | [E,A,]2 [D,A,]>[F,A,] [E,=G,]2 [D,G,]>[C,G,] | (G,2 F,2) [C,E,]4 | %17
 [C,G,]2 [C,G,]>[C,G,] [C,G,]2 [C,G,]>[C,G,] | [C,G,]4 [C,G,]4 | %19
 [C,G,]2 [C,G,]>[C,G,] [C,G,]2 [C,G,]>[C,G,] | [C,G,]4 [C,G,]4 | C2 C>C C2 C>C | [C,C]2 CC C4 x2 | %23
 [A,C]2 [D,D]>[D,D] [E,G,]2 [F,A,][F,A,] | (D,2 F,2) [C,E,]4 |] %25
V:4
 G,2 | C2 C2 B,2 E,2 | A,2 A,2 G,2 (CB,) | x8 | G,2 x2 G,2 x2 | C2 CC B,2 E,2 | A,2 A,2 G,2 E,E, | %7
 A,A, A,2 x4 | x8 | x8 | x8 | x8 | (C,D,) x4 G, x | C2 C2 x4 | x4 F,4 | x8 | G,,4 x4 | x8 | x8 | %19
 x8 | x8 | C,4 C,4 | x2 CC C4 x2 | x8 | G,,4 x4 |] %25

